X:1
T:Banish Misfortune
R:jig
M:6/8
L:1/8
K:Dmix
d2e|:fed cAG|Add cAG|F2D D^CD|FDD GFG|
|AGA cAG|AGA cde|fed cAG|Ad^c d2e:|
|:f2d d^cd|f2a agf|e2c cBc|e2f gfe|
|f2g agf|e2f gfe|fed cAG|Ad^c d2e:|
|:f2g e2f|d2e c2d|ABA GAG|FAG FED|
|c2c cAG|AGA cde|fed cAG|Ad^c d2e:|